packages/axiom-components/src/Pictogram/svgs/choropleth-map.svg

<svg height="16" viewBox="0 0 16 16" width="16" xmlns="http://www.w3.org/2000/svg"><path d="m8 16c-.04882812 0-6-6-6-10 0-3.3137085 2.6862915-6 6-6s6 2.6862915 6 6c0 4-5.95117188 10-6 10zm0-8c1.1045695 0 2-.8954305 2-2s-.8954305-2-2-2-2 .8954305-2 2 .8954305 2 2 2z" fill-rule="evenodd"/></svg>

<?xml version="1.0" encoding="UTF-8"?>
<svg width="16px" height="16px" viewBox="0 0 16 16" version="1.1" xmlns="http://www.w3.org/2000/svg" xmlns:xlink="http://www.w3.org/1999/xlink">
    <!-- Generator: Sketch 46.2 (44496) - http://www.bohemiancoding.com/sketch -->
    <title>Choropleth Map</title>
    <desc>Created with Sketch.</desc>
    <defs></defs>
    <g id="Axiom-Icons" stroke="none" stroke-width="1" fill="none" fill-rule="evenodd">
        <g id="Choropleth-Map" fill="#000000">
            <path d="M8,16 C7.95117188,16 2,10 2,6 C2,2.6862915 4.6862915,0 8,0 C11.3137085,0 14,2.6862915 14,6 C14,10 8.04882812,16 8,16 Z M8,8 C9.1045695,8 10,7.1045695 10,6 C10,4.8954305 9.1045695,4 8,4 C6.8954305,4 6,4.8954305 6,6 C6,7.1045695 6.8954305,8 8,8 Z"></path>
        </g>
    </g>
</svg>
